X: 1
T: Bouree De Berri
M: 3/4
L: 1/8
R: waltz
K: Amin
e4 ^d2|f4 A2|Bc d2 e2|c2 Bc A2|e4 ^d2|e4 A2|BA Bd Bc|1A6:|2A4A2||
^G4 F2|E4 A2|Bc d2 e2|c2 Bc A2|^G4 F2|E4 A2|BA Bd Bc|1A4A2:|2A6|
